assets/img/braze_icons/medical-cross.svg

<svg fill="none" height="24" viewBox="0 0 24 24" width="24" xmlns="http://www.w3.org/2000/svg"><path clip-rule="evenodd" d="m10.5681 2h2.8638c.2524-.00003.4982-.00006.7063.01695.2286.01868.4984.06274.7698.20104.3763.19175.6823.49771.874.87403.1383.27143.1824.54116.2011.76976.017.20816.0169.45396.0169.70634l.0115 3.42044 3.4204.01144c.2524-.00003.4982-.00006.7063.01695.2286.01868.4984.06274.7698.20104.3763.19175.6823.49771.874.87403.1383.27143.1824.54116.2011.76976.017.20812.0169.45392.0169.70632v2.8638c0 .2524.0001.4982-.0169.7063-.0187.2286-.0628.4984-.2011.7698-.1917.3763-.4977.6823-.874.874-.2714.1383-.5412.1824-.7698.2011-.2081.017-.4539.0169-.7063.0169l-3.4204.0115-.0115 3.4204c0 .2524.0001.4982-.0169.7063-.0187.2286-.0628.4984-.2011.7698-.1917.3763-.4977.6823-.874.874-.2714.1383-.5412.1824-.7698.2011-.2081.017-.4539.0169-.7063.0169h-2.8638c-.2524 0-.4982.0001-.70632-.0169-.2286-.0187-.49833-.0628-.76976-.2011-.37632-.1917-.68228-.4977-.87403-.874-.1383-.2714-.18236-.5412-.20104-.7698-.01701-.2081-.01698-.4539-.01695-.7063l.01695-3.4319h-3.44883c-.25238 0-.49818.0001-.70634-.0169-.2286-.0187-.49833-.0628-.76976-.2011-.37632-.1917-.68228-.4977-.87403-.874-.1383-.2714-.18236-.5412-.20104-.7698-.01701-.2081-.01698-.4539-.01695-.7063v-2.8638c-.00003-.2524-.00006-.4982.01695-.70633.01868-.22859.06274-.49832.20104-.76975.19175-.37632.49771-.68228.87403-.87403.27143-.1383.54116-.18236.76976-.20104.20815-.01701.45394-.01698.70633-.01695l3.42045-.01144.01144-3.42045c-.00003-.25239-.00006-.49818.01695-.70633.01868-.2286.06274-.49833.20104-.76976.19175-.37632.49771-.68228.87403-.87403.27143-.1383.54116-.18236.76976-.20104.20812-.01701.45392-.01698.70632-.01695z" fill="#801ed7" fill-rule="evenodd"/></svg>

<svg width="24" height="24" viewBox="0 0 24 24" fill="none" xmlns="http://www.w3.org/2000/svg">
<path fill-rule="evenodd" clip-rule="evenodd" d="M10.5681 2H13.4319C13.6843 1.99997 13.9301 1.99994 14.1382 2.01695C14.3668 2.03563 14.6366 2.07969 14.908 2.21799C15.2843 2.40974 15.5903 2.7157 15.782 3.09202C15.9203 3.36345 15.9644 3.63318 15.9831 3.86178C16.0001 4.06994 16 4.31574 16 4.56812L16.0115 7.98856L19.4319 8C19.6843 7.99997 19.9301 7.99994 20.1382 8.01695C20.3668 8.03563 20.6366 8.07969 20.908 8.21799C21.2843 8.40974 21.5903 8.7157 21.782 9.09202C21.9203 9.36345 21.9644 9.63318 21.9831 9.86178C22.0001 10.0699 22 10.3157 22 10.5681V13.4319C22 13.6843 22.0001 13.9301 21.9831 14.1382C21.9644 14.3668 21.9203 14.6366 21.782 14.908C21.5903 15.2843 21.2843 15.5903 20.908 15.782C20.6366 15.9203 20.3668 15.9644 20.1382 15.9831C19.9301 16.0001 19.6843 16 19.4319 16L16.0115 16.0115L16 19.4319C16 19.6843 16.0001 19.9301 15.9831 20.1382C15.9644 20.3668 15.9203 20.6366 15.782 20.908C15.5903 21.2843 15.2843 21.5903 14.908 21.782C14.6366 21.9203 14.3668 21.9644 14.1382 21.9831C13.9301 22.0001 13.6843 22 13.4319 22H10.5681C10.3157 22 10.0699 22.0001 9.86178 21.9831C9.63318 21.9644 9.36345 21.9203 9.09202 21.782C8.7157 21.5903 8.40974 21.2843 8.21799 20.908C8.07969 20.6366 8.03563 20.3668 8.01695 20.1382C7.99994 19.9301 7.99997 19.6843 8 19.4319L8.01695 16H4.56812C4.31574 16 4.06994 16.0001 3.86178 15.9831C3.63318 15.9644 3.36345 15.9203 3.09202 15.782C2.7157 15.5903 2.40974 15.2843 2.21799 14.908C2.07969 14.6366 2.03563 14.3668 2.01695 14.1382C1.99994 13.9301 1.99997 13.6843 2 13.4319V10.5681C1.99997 10.3157 1.99994 10.0699 2.01695 9.86177C2.03563 9.63318 2.07969 9.36345 2.21799 9.09202C2.40974 8.7157 2.7157 8.40974 3.09202 8.21799C3.36345 8.07969 3.63318 8.03563 3.86178 8.01695C4.06993 7.99994 4.31572 7.99997 4.56811 8L7.98856 7.98856L8 4.56811C7.99997 4.31572 7.99994 4.06993 8.01695 3.86178C8.03563 3.63318 8.07969 3.36345 8.21799 3.09202C8.40974 2.7157 8.7157 2.40974 9.09202 2.21799C9.36345 2.07969 9.63318 2.03563 9.86178 2.01695C10.0699 1.99994 10.3157 1.99997 10.5681 2Z" fill="#801ED7"/>
</svg>
